X:6
T:Elizabeth's Jig
R:jig
C:Donald Angus Beaton
D:Andrea Beaton, The Tap Session
O:20th century Cape Breton
B:The Beaton Collection
Z:Paul Stewart Cranford (P.S.C.), <http://www.cranfordpub.com>
L:1/8
M:6/8
Q:300
K:G
c|:BAB GBd|g3 (f/g/a)f|gdB GBg|A3 A2 g|
fed cBA|f3 e2 g|fed cBA|[1G3 GAc:|[2G3 G2:|
||c|:BAB GBd|c3 efg|dBG GFG|A3 ABc|
BAB GBd|c3 efg|dBG cAF|[1G3 GAc:|[2G3 G2|]

